svgs/sehhaty.svg

<?xml version="1.0" encoding="UTF-8" standalone="no"?>
<!-- Created with Inkscape (http://www.inkscape.org/) -->

<svg
   width="192"
   height="192"
   viewBox="0 0 192 192"
   version="1.1"
   id="svg1"
   xmlns="http://www.w3.org/2000/svg"
   xmlns:svg="http://www.w3.org/2000/svg">
  <defs
     id="defs1" />
  <path
     id="path15677-3-3-6"
     style="opacity:1;fill:none;fill-opacity:1;fill-rule:evenodd;stroke:#000000;stroke-width:12;stroke-linecap:round;stroke-linejoin:round;stroke-dasharray:none;stroke-opacity:1;paint-order:stroke fill markers"
     d="M 50.738704,103.98517 C 49.152158,95.808404 61.188612,81.73371 73.898248,93.461065 L 90.740532,111.39027 M 136.15077,47.987279 c 2.0756,-7.746189 -15.40343,-21.399542 -24.83455,-7.764951 L 73.898248,93.461065 M 93.728974,152.78456 166.01283,50.50755 C 178.83671,32.691908 157.26666,18.620578 144.27065,36.643754 L 80.129543,126.19928 c -8.396043,13.25306 -27.677779,9.29289 -44.216164,5.85884 8.812273,9.93067 22.673434,25.27735 22.673434,25.27735 11.481324,10.64587 26.039494,6.9136 35.142161,-4.55091 z M 35.917921,132.05812 25.295036,119.26954 C 13.992337,103.98517 33.485487,84.374522 50.738704,103.98517 l 24.307898,27.51947" />
</svg>

<svg xmlns="http://www.w3.org/2000/svg" width="192" height="192"><path d="M50.739 103.985c-1.587-8.177 10.45-22.251 23.16-10.524l16.842 17.93m45.41-63.404c2.075-7.746-15.404-21.4-24.835-7.765l-37.418 53.24m19.831 59.323 72.284-102.277c12.824-17.816-8.746-31.887-21.742-13.864L80.13 126.199c-8.396 13.253-27.678 9.293-44.217 5.86 8.813 9.93 22.674 25.276 22.674 25.276 11.481 10.646 26.04 6.914 35.142-4.55m-57.811-20.727L25.295 119.27c-11.303-15.285 8.19-34.895 25.444-15.285l24.308 27.52" style="opacity:1;fill:none;fill-opacity:1;fill-rule:evenodd;stroke:#000;stroke-width:12;stroke-linecap:round;stroke-linejoin:round;stroke-dasharray:none;stroke-opacity:1;paint-order:stroke fill markers"/></svg>
